X: 14406
T: Galway Belle, The
R: polka
M: 2/4
K: Adorian
|:A/G/A/B/ c/B/c/d/|ea e>d|BG G/A/B/c/|d/e/d/c/ B/c/B/G/|
A/G/A/B/ c/B/c/d/|ea e>d|Bg dc/B/|1 A2 A2:|2 AB ce||
|:aa e/f/g/e/|aa e>f|gd d/e/d/c/|B/c/d/B/ G2|
A/G/A/B/ c/B/c/d/|ea e>d|Bg dc/B/|1 AB ce:|2 A2 A2||

